symbolic/24x24/actions/snap-nodes-path.svg

<svg xmlns="http://www.w3.org/2000/svg" width="24" height="24" version="1.1">
 <defs>
  <style id="current-color-scheme" type="text/css">
   .ColorScheme-Text { color:#323a41; } .ColorScheme-Highlight { color:#4285f4; } .ColorScheme-NeutralText { color:#ff9800; } .ColorScheme-PositiveText { color:#4caf50; } .ColorScheme-NegativeText { color:#f44336; }
  </style>
 </defs>
 <g transform="translate(4,4)">
  <path style="fill:currentColor" class="ColorScheme-Text" d="M 1.0058594 1.4941406 L 1.0195312 1.5 A 0.50005 0.50005 0 0 0 0.9375 2.4960938 C 0.9375 2.4960938 4.6236281 3.0112381 7.2363281 4.6738281 C 8.5427281 5.5051381 9.5440688 6.5832406 9.7929688 7.9941406 C 10.041949 9.4050406 9.5606013 11.255353 7.6132812 13.689453 A 0.50005 0.50005 0 0 0 7.9941406 14.5 C 11.613141 14.5 13.564497 13.165409 14.529297 11.787109 C 15.489297 10.407109 15.488281 8.9960938 15.488281 8.9960938 A 0.50005 0.50005 0 1 0 14.488281 8.9960938 C 14.488281 8.9960938 14.488325 10.087284 13.703125 11.208984 C 13.017775 12.188054 11.522291 13.071 8.9628906 13.3125 C 10.394391 11.2069 11.031219 9.3412531 10.761719 7.8144531 C 10.448199 6.0378531 9.2014125 4.7428187 7.7578125 3.8242188 C 4.8705125 1.9868188 1.0546875 1.5 1.0546875 1.5 A 0.50005 0.50005 0 0 0 1.0058594 1.4941406 z"/>
 </g>
</svg>

<svg xmlns="http://www.w3.org/2000/svg" width="24" height="24"><defs><style id="current-color-scheme" type="text/css"></style></defs><path style="fill:currentColor;color:#323a41" d="m1.006 1.494.014.006a.5.5 0 0 0-.083.996s3.687.515 6.3 2.178c1.306.831 2.307 1.91 2.556 3.32.249 1.411-.232 3.261-2.18 5.695a.5.5 0 0 0 .381.811c3.62 0 5.57-1.335 6.535-2.713.96-1.38.96-2.79.96-2.79a.5.5 0 1 0-1 0s0 1.09-.786 2.212c-.685.98-2.18 1.862-4.74 2.104 1.431-2.106 2.068-3.972 1.799-5.499-.314-1.776-1.56-3.071-3.004-3.99C4.87 1.987 1.055 1.5 1.055 1.5a.5.5 0 0 0-.05-.006z" transform="translate(4 4)"/></svg>
